X:323
T: Yaolan qu
N: C0961
O: China,bei Dongbei, Nordosten
S: MM, S. 368 , Quelle S. Bandprotokoll)]
N: Die Saengerin Lei Huilan ist Angehoerige der Zhuang Minderheit und
N: studiert an der Guangzhouer Musikhochschule.
N: Aufgenommen am 5.5.87
N: Kodiert von Wang Sen. - In der Kopie ist die Wiederholung der Phrasen
N: 1-4 notiert! ??
R: Xiaodiao, Mengjiangn diao. Muqin hong haizi shueijiao]
M: 2/4
L: 1/16
K: F
F2F2F3D | C2F2F4 | c2dfdcA2 | cAG2G4 |
G2c2c4 | G2AGF4 | FDAAGFFD | C2C6 |
DFCDF3G | AGFGc3A | G2A2A2CD | G2E2D4 |
dcAcd3c | dcAdc4 | AcAGFDFD | c2AGGFD2 | C8

@@@ Tune index: 6324
